; HEADER_BLOCK_START
; BambuStudio 01.10.01.50
; estimated printing time (normal mode) = 2h 2m 56s
; total layer number: 175
; total filament length [mm] : 7195.80
; total filament volume [cm^3] : 17307.92
; total filament weight [g] : 21.46
; filament_density: 1.24
; filament_diameter: 1.75
; max_z_height: 35.00
; HEADER_BLOCK_END

; CONFIG_BLOCK_START
; accel_to_decel_enable = 0
; accel_to_decel_factor = 50%
; activate_air_filtration = 0
; additional_cooling_fan_speed = 70
; auxiliary_fan = 0
; bed_custom_model = 
; bed_custom_texture = 
; bed_exclude_area = 0x0
; before_layer_change_gcode = 
; best_object_pos = 0.5,0.5
; bottom_shell_layers = 5
; bottom_shell_thickness = 0
; bottom_surface_pattern = monotonic
; bridge_angle = 0
; bridge_flow = 0.95
; bridge_no_support = 0
; bridge_speed = 25
; brim_object_gap = 0
; brim_type = auto_brim
; brim_width = 0
; chamber_temperatures = 0
; change_filament_gcode = M600
; close_fan_the_first_x_layers = 1
; complete_print_exhaust_fan_speed = 80
; cool_plate_temp = 60
; cool_plate_temp_initial_layer = 60
; curr_bed_type = High Temp Plate
; default_acceleration = 0
; default_filament_colour = ""
; default_filament_profile = "Generic PLA @Creality"
; default_jerk = 0
; default_print_profile = 0.20mm Standard @Creality Ender5
; deretraction_speed = 40
; detect_narrow_internal_solid_infill = 1
; detect_overhang_wall = 1
; detect_thin_wall = 0
; different_settings_to_system = enable_support;support_filament;support_interface_filament;support_type;;
; draft_shield = disabled
; during_print_exhaust_fan_speed = 60
; elefant_foot_compensation = 0.1
; enable_arc_fitting = 0
; enable_long_retraction_when_cut = 0
; enable_overhang_bridge_fan = 1
; enable_overhang_speed = 1
; enable_pressure_advance = 0
; enable_prime_tower = 0
; enable_support = 1
; enforce_support_layers = 0
; eng_plate_temp = 60
; eng_plate_temp_initial_layer = 60
; ensure_vertical_shell_thickness = 1
; exclude_object = 1
; extruder_clearance_dist_to_rod = 47
; extruder_clearance_height_to_lid = 34
; extruder_clearance_height_to_rod = 34
; extruder_clearance_max_radius = 65
; extruder_colour = #FCE94F
; extruder_offset = 0x0
; extruder_type = DirectDrive
; fan_cooling_layer_time = 100
; fan_max_speed = 100
; fan_min_speed = 100
; filament_colour = #00AE42
; filament_cost = 20
; filament_density = 1.24
; filament_diameter = 1.75
; filament_end_gcode = "; filament end gcode \n"
; filament_flow_ratio = 0.98
; filament_ids = GFL99
; filament_is_support = 0
; filament_max_volumetric_speed = 12
; filament_minimal_purge_on_wipe_tower = 15
; filament_notes = 
; filament_scarf_gap = 0
; filament_scarf_height = 0%
; filament_scarf_length = 10
; filament_scarf_seam_type = none
; filament_settings_id = "Generic PLA @Creality"
; filament_shrink = 100%
; filament_soluble = 0
; filament_start_gcode = "; filament start gcode\n"
; filament_type = PLA
; filament_vendor = Generic
; filename_format = [input_filename_base].gcode
; filter_out_gap_fill = 0
; first_layer_print_sequence = 0
; flush_into_infill = 0
; flush_into_objects = 0
; flush_into_support = 1
; flush_multiplier = 1
; flush_volumes_matrix = 0
; flush_volumes_vector = 140,140
; full_fan_speed_layer = 0
; fuzzy_skin = none
; fuzzy_skin_point_distance = 0.8
; fuzzy_skin_thickness = 0.3
; gap_infill_speed = 30
; gcode_add_line_number = 0
; gcode_flavor = marlin
; has_scarf_joint_seam = 0
; head_wrap_detect_zone = 
; host_type = octoprint
; hot_plate_temp = 60
; hot_plate_temp_initial_layer = 60
; independent_support_layer_height = 1
; infill_combination = 0
; infill_direction = 45
; infill_jerk = 9
; infill_wall_overlap = 25%
; initial_layer_acceleration = 0
; initial_layer_flow_ratio = 1
; initial_layer_infill_speed = 35
; initial_layer_jerk = 9
; initial_layer_line_width = 0.42
; initial_layer_print_height = 0.2
; initial_layer_speed = 15
; inner_wall_acceleration = 0
; inner_wall_jerk = 9
; inner_wall_line_width = 0.45
; inner_wall_speed = 40
; interface_shells = 0
; internal_bridge_support_thickness = 0
; internal_solid_infill_line_width = 0
; internal_solid_infill_pattern = zig-zag
; internal_solid_infill_speed = 50
; ironing_direction = 45
; ironing_flow = 15%
; ironing_inset = 0
; ironing_pattern = zig-zag
; ironing_spacing = 0.1
; ironing_speed = 15
; ironing_type = no ironing
; is_infill_first = 0
; layer_change_gcode = 
; layer_height = 0.2
; line_width = 0.45
; long_retractions_when_cut = 0
; machine_end_gcode = {if max_layer_z < printable_height}G1 Z{z_offset+min(max_layer_z+2, printable_height)} F600 ; Move print head up{endif}\nG1 X5 Y{print_bed_max[1]*0.8} F{travel_speed*60} ; present print\n{if max_layer_z < printable_height-10}G1 Z{z_offset+min(max_layer_z+70, printable_height-10)} F600 ; Move print head further up{endif}\n{if max_layer_z < max_print_height*0.6}G1 Z{printable_height*0.6} F600 ; Move print head further up{endif}\nM140 S0 ; turn off heatbed\nM104 S0 ; turn off temperature\nM107 ; turn off fan\nM84 X Y E ; disable motors
; machine_load_filament_time = 0
; machine_max_acceleration_e = 5000,5000
; machine_max_acceleration_extruding = 500,500
; machine_max_acceleration_retracting = 1000,1000
; machine_max_acceleration_travel = 1500,1250
; machine_max_acceleration_x = 500,500
; machine_max_acceleration_y = 500,500
; machine_max_acceleration_z = 100,100
; machine_max_jerk_e = 5,5
; machine_max_jerk_x = 8,8
; machine_max_jerk_y = 8,8
; machine_max_jerk_z = 0.4,0.4
; machine_max_speed_e = 60,60
; machine_max_speed_x = 500,500
; machine_max_speed_y = 500,500
; machine_max_speed_z = 5,5
; machine_min_extruding_rate = 0,0
; machine_min_travel_rate = 0,0
; machine_pause_gcode = M0
; machine_start_gcode = G90 ; use absolute coordinates\nM83 ; extruder relative mode\nM140 S[bed_temperature_initial_layer_single] ; set final bed temp\nM104 S150 ; set temporary nozzle temp to prevent oozing during homing\nG4 S10 ; allow partial nozzle warmup\nG28 ; home all axis\nG1 Z50 F240\nG1 X2 Y10 F3000\nM104 S[nozzle_temperature_initial_layer] ; set final nozzle temp\nM190 S[bed_temperature_initial_layer_single] ; wait for bed temp to stabilize\nM109 S[nozzle_temperature_initial_layer] ; wait for nozzle temp to stabilize\nG1 Z0.28 F240\nG92 E0\nG1 Y140 E10 F1500 ; prime the nozzle\nG1 X2.3 F5000\nG92 E0\nG1 Y10 E10 F1200 ; prime the nozzle\nG92 E0
; machine_unload_filament_time = 0
; max_bridge_length = 10
; max_layer_height = 0.32
; max_travel_detour_distance = 0
; min_bead_width = 85%
; min_feature_size = 25%
; min_layer_height = 0.08
; minimum_sparse_infill_area = 10
; mmu_segmented_region_interlocking_depth = 0
; mmu_segmented_region_max_width = 0
; nozzle_diameter = 0.4
; nozzle_height = 4
; nozzle_temperature = 220
; nozzle_temperature_initial_layer = 220
; nozzle_temperature_range_high = 230
; nozzle_temperature_range_low = 190
; nozzle_type = undefine
; nozzle_volume = 0
; only_one_wall_first_layer = 0
; ooze_prevention = 0
; other_layers_print_sequence = 0
; other_layers_print_sequence_nums = 0
; outer_wall_acceleration = 500
; outer_wall_jerk = 9
; outer_wall_line_width = 0.45
; outer_wall_speed = 40
; overhang_1_4_speed = 0
; overhang_2_4_speed = 20
; overhang_3_4_speed = 15
; overhang_4_4_speed = 10
; overhang_fan_speed = 100
; overhang_fan_threshold = 50%
; overhang_threshold_participating_cooling = 95%
; overhang_totally_speed = 24
; post_process = 
; precise_z_height = 0
; pressure_advance = 0.02
; prime_tower_brim_width = 3
; prime_tower_width = 60
; prime_volume = 45
; print_compatible_printers = "Creality Ender-5 0.4 nozzle"
; print_flow_ratio = 1
; print_sequence = by layer
; print_settings_id = 0.20mm Standard @Creality Ender5
; printable_area = 0x0,220x0,220x220,0x220
; printable_height = 300
; printer_model = Creality Ender-5
; printer_notes = 
; printer_settings_id = Creality Ender-5 0.4 nozzle
; printer_structure = undefine
; printer_technology = FFF
; printer_variant = 0.4
; printhost_authorization_type = key
; printhost_ssl_ignore_revoke = 0
; printing_by_object_gcode = 
; process_notes = 
; raft_contact_distance = 0.1
; raft_expansion = 1.5
; raft_first_layer_density = 90%
; raft_first_layer_expansion = 2
; raft_layers = 0
; reduce_crossing_wall = 0
; reduce_fan_stop_start_freq = 1
; reduce_infill_retraction = 1
; required_nozzle_HRC = 3
; resolution = 0.012
; retract_before_wipe = 70%
; retract_length_toolchange = 1
; retract_lift_above = 0
; retract_lift_below = 299
; retract_restart_extra = 0
; retract_restart_extra_toolchange = 0
; retract_when_changing_layer = 1
; retraction_distances_when_cut = 18
; retraction_length = 6
; retraction_minimum_travel = 2
; retraction_speed = 60
; role_base_wipe_speed = 1
; scan_first_layer = 0
; scarf_angle_threshold = 155
; seam_gap = 15%
; seam_position = aligned
; seam_slope_conditional = 1
; seam_slope_entire_loop = 0
; seam_slope_inner_walls = 1
; seam_slope_steps = 10
; silent_mode = 0
; single_extruder_multi_material = 0
; skirt_distance = 2
; skirt_height = 2
; skirt_loops = 2
; slice_closing_radius = 0.049
; slicing_mode = regular
; slow_down_for_layer_cooling = 1
; slow_down_layer_time = 8
; slow_down_min_speed = 10
; small_perimeter_speed = 50%
; small_perimeter_threshold = 0
; smooth_coefficient = 80
; smooth_speed_discontinuity_area = 1
; solid_infill_filament = 1
; sparse_infill_acceleration = 100%
; sparse_infill_anchor = 400%
; sparse_infill_anchor_max = 20
; sparse_infill_density = 15%
; sparse_infill_filament = 1
; sparse_infill_line_width = 0.45
; sparse_infill_pattern = grid
; sparse_infill_speed = 60
; spiral_mode = 0
; spiral_mode_max_xy_smoothing = 200%
; spiral_mode_smooth = 0
; standby_temperature_delta = -5
; start_end_points = 30x-3,54x245
; supertack_plate_temp = 35
; supertack_plate_temp_initial_layer = 35
; support_air_filtration = 0
; support_angle = 0
; support_base_pattern = default
; support_base_pattern_spacing = 2.5
; support_bottom_interface_spacing = 0.5
; support_bottom_z_distance = 0.2
; support_chamber_temp_control = 0
; support_critical_regions_only = 0
; support_expansion = 0
; support_filament = 1
; support_interface_bottom_layers = 0
; support_interface_filament = 1
; support_interface_loop_pattern = 0
; support_interface_not_for_body = 1
; support_interface_pattern = auto
; support_interface_spacing = 0.5
; support_interface_speed = 100
; support_interface_top_layers = 3
; support_line_width = 0.4
; support_object_first_layer_gap = 0.2
; support_object_xy_distance = 0.35
; support_on_build_plate_only = 0
; support_remove_small_overhang = 1
; support_speed = 40
; support_style = default
; support_threshold_angle = 30
; support_top_z_distance = 0.15
; support_type = tree(auto)
; temperature_vitrification = 60
; template_custom_gcode = 
; textured_plate_temp = 60
; textured_plate_temp_initial_layer = 60
; thick_bridges = 0
; thumbnail_size = 50x50
; time_lapse_gcode = 
; timelapse_type = 0
; top_area_threshold = 100%
; top_one_wall_type = all top
; top_shell_layers = 7
; top_shell_thickness = 0.8
; top_solid_infill_flow_ratio = 1
; top_surface_acceleration = 0
; top_surface_jerk = 9
; top_surface_line_width = 0.4
; top_surface_pattern = monotonic
; top_surface_speed = 30
; travel_jerk = 9
; travel_speed = 150
; travel_speed_z = 0
; tree_support_branch_angle = 40
; tree_support_branch_diameter = 5
; tree_support_branch_diameter_angle = 5
; tree_support_branch_distance = 5
; tree_support_wall_count = 0
; upward_compatible_machine = 
; use_firmware_retraction = 0
; use_relative_e_distances = 1
; wall_distribution_count = 1
; wall_filament = 1
; wall_generator = arachne
; wall_loops = 2
; wall_sequence = inner wall/outer wall
; wall_transition_angle = 10
; wall_transition_filter_deviation = 25%
; wall_transition_length = 100%
; wipe = 1
; wipe_distance = 2
; wipe_speed = 80%
; wipe_tower_no_sparse_layers = 0
; wipe_tower_rotation_angle = 0
; wipe_tower_x = 165
; wipe_tower_y = 250
; xy_contour_compensation = 0
; xy_hole_compensation = 0
; z_hop = 0.4
; z_hop_types = Normal Lift
; CONFIG_BLOCK_END

; THUMBNAIL_BLOCK_START
; THUMBNAIL_BLOCK_END

; EXECUTABLE_BLOCK_START
M73 P0 R122
M201 X500 Y500 Z100 E5000
M203 X500 Y500 Z5 E60
M204 P500 R1000 T500
M205 X8.00 Y8.00 Z0.40 E5.00
M106 S0
M106 P2 S0
; FEATURE: Custom
G90 ; use absolute coordinates
M83 ; extruder relative mode
M140 S60 ; set final bed temp
M104 S150 ; set temporary nozzle temp to prevent oozing during homing
G4 S10 ; allow partial nozzle warmup
G28 ; home all axis
G1 Z50 F240
G1 X2 Y10 F3000
M104 S220 ; set final nozzle temp
M190 S60 ; wait for bed temp to stabilize
M109 S220 ; wait for nozzle temp to stabilize
G1 Z0.28 F240
G92 E0
G1 Y140 E10 F1500 ; prime the nozzle
G1 X2.3 F5000
G92 E0
G1 Y10 E10 F1200 ; prime the nozzle
G92 E0
G90
G21
M83 ; use relative distances for extrusion
; filament start gcode
; CHANGE_LAYER
; Z_HEIGHT: 0.2
; LAYER_HEIGHT: 0.2
G1 E-6 F3600
M106 S0
M106 P2 S0
G1 Z.4 F9000
G1 X82.796 Y84.606
G1 Z.4
G1 Z.2
G1 E6 F2400
; FEATURE: Skirt
; LINE_WIDTH: 0.42
G1 F900
G1 X84.077 Y83.504 E.05191
G1 X85.457 Y82.529 E.05191
G1 X86.923 Y81.69 E.05191
G1 X88.463 Y80.994 E.05191
G1 X90.061 Y80.447 E.05191
G1 X91.704 Y80.055 E.05191
G1 X93.378 Y79.821 E.05191
G1 X95 Y79.746 E.0499
G1 X125.014 Y79.746 E.92226
G1 X127.591 Y79.937 E.0794
G1 X129.122 Y80.232 E.04789
G1 X130.745 Y80.702 E.05191
G1 X133.193 Y81.75 E.08185
G1 X134.653 Y82.6 E.05191
G1 X135.923 Y83.504 E.04789
G1 X137.894 Y85.296 E.08185
G1 X139.499 Y87.255 E.07783
G1 X140.342 Y88.567 E.04789
G1 X141.122 Y90.065 E.05191
G1 X142.053 Y92.561 E.08185
G1 X142.563 Y94.909 E.07382
G1 X142.753 Y97.434 E.07783
G1 X142.73 Y123.41 E.79816
G1 X142.42 Y125.924 E.07783
G1 X141.798 Y128.245 E.07382
G1 X140.81 Y130.577 E.07783
G1 X139.5 Y132.745 E.07783
G1 X138.374 Y134.176 E.05594
G1 X137.204 Y135.394 E.05191
G1 X135.351 Y136.923 E.07382
G1 X133.933 Y137.842 E.05191
G1 X132.315 Y138.676 E.05594
G1 X130.065 Y139.516 E.07381
G1 X128.295 Y139.945 E.05594
G1 X126.622 Y140.179 E.05191
G1 X125 Y140.254 E.0499
G1 X95 Y140.254 E.92182
G1 X93.378 Y140.179 E.0499
G1 X90.878 Y139.768 E.07783
G1 X89.132 Y139.256 E.05594
G1 X86.923 Y138.31 E.07382
G1 X84.755 Y137 E.07783
G1 X83.324 Y135.874 E.05594
G1 X82.106 Y134.704 E.05191
G1 X80.577 Y132.851 E.07381
G1 X79.658 Y131.433 E.05191
G1 X78.824 Y129.815 E.05594
G1 X78.201 Y128.242 E.05199
G1 X77.58 Y125.924 E.07374
G1 X77.321 Y124.122 E.05594
G1 X77.246 Y122.5 E.0499
G1 X77.246 Y97.5 E.76818
G1 X77.321 Y95.878 E.0499
G1 X77.58 Y94.076 E.05594
G1 X78.244 Y91.631 E.07783
G1 X79.25 Y89.307 E.07783
G1 X80.501 Y87.255 E.07382
G1 X81.626 Y85.824 E.05594
G1 X82.755 Y84.649 E.05007
G1 X83.001 Y84.934 F9000
G1 F900
G1 X84.303 Y83.806 E.05292
G1 X85.653 Y82.851 E.05081
G1 X87.73 Y81.717 E.07271
G1 X89.263 Y81.098 E.05081
G1 X90.848 Y80.627 E.05081
G1 X92.471 Y80.309 E.05081
G1 X95 Y80.123 E.07792
G1 X125.014 Y80.123 E.92226
G1 X127.529 Y80.309 E.07748
G1 X129.042 Y80.6 E.04734
G1 X130.63 Y81.061 E.05081
G1 X133.013 Y82.081 E.07965
G1 X134.442 Y82.913 E.05081
G1 X135.697 Y83.806 E.04734
G1 X137.537 Y85.468 E.07618
G1 X139.187 Y87.467 E.07965
M73 P0 R121
G1 X140.02 Y88.763 E.04734
G1 X140.783 Y90.23 E.05081
G1 X141.688 Y92.659 E.07965
G1 X142.191 Y94.971 E.07271
G1 X142.376 Y97.443 E.07618
G1 X142.354 Y123.383 E.79706
G1 X142.052 Y125.844 E.07618
G1 X141.402 Y128.237 E.07618
G1 X140.471 Y130.412 E.07271
G1 X139.187 Y132.533 E.07618
G1 X138.095 Y133.922 E.05428
G1 X136.95 Y135.115 E.05081
G1 X135.125 Y136.622 E.07271
G1 X133.639 Y137.577 E.05428
G1 X132.167 Y138.33 E.05081
G1 X129.95 Y139.157 E.07271
G1 X128.344 Y139.552 E.05081
G1 X126.595 Y139.803 E.05428
G1 X125 Y139.877 E.04908
G1 X95 Y139.877 E.92182
G1 X93.405 Y139.803 E.04907
G1 X90.958 Y139.4 E.07618
G1 X89.263 Y138.902 E.05428
G1 X87.088 Y137.971 E.07271
G1 X84.967 Y136.687 E.07618
G1 X83.578 Y135.595 E.05428
G1 X82.385 Y134.45 E.05081
G1 X80.878 Y132.625 E.07271
G1 X79.98 Y131.237 E.05081
G1 X79.17 Y129.667 E.05428
G1 X78.56 Y128.128 E.05088
G1 X77.948 Y125.844 E.07264
G1 X77.697 Y124.095 E.05428
G1 X77.623 Y122.5 E.04908
G1 X77.623 Y97.5 E.76818
